X: 20761
T: Johnny I Do Miss You
R: polka
M: 2/4
K: Dmajor
d>B|AF ED|F2 A,2|FB AF|E3 B|
AF ED|F2 A,F|G2 FE|D2:|
E2|FA A/B/A/G/|FA AE|FA Bc|d3 A|
FA A/B/A/G/|FA d>e|fe ed|e3 A|
FA A/B/A/G/|FA AE|FA Bc|d2 cB|
AF ED|F2 A,2|GA/G/ FE|D2:|

